X: 37532
T: Sloe, The
R: polka
M: 2/4
K: Dmajor
|:A|Ad de|f>e dc|BA B/c/d/B/|AG GA|
Ad de|f>e dc|BA Bc|d3:|
|:A|BA FA|BA Fc/d/|ed cB|B2 Ad|
dc ce|ed df|fe dc|d3:|

